!!!COM: Sergey (Sergeyevich) Prokofiev
!!!OTL: [T569_Pro-w13p84m65-72]
**kern	**dynam	**kern	**dynam	**kern	**dynam	**kern	**dynam	**kern	**dynam	**kern	**kern	**dynam
!!pagebreak:original
*clefF4	*	*clefF4	*	*clefC3	*	*clefG2	*	*clefG2	*	*clefF4	*clefG2	*
*Trd0c0	*	*	*	*	*	*	*	*	*	*	*	*
*k[]	*	*k[]	*	*k[]	*	*k[]	*	*k[]	*	*k[]	*k[]	*
*C:	*	*C:	*	*C:	*	*C:	*	*C:	*	*C:	*C:	*
*M12/8	*	*M12/8	*	*M12/8	*	*M12/8	*	*M12/8	*	*M12/8	*M12/8	*
=1	=1	=1	=1	=1	=1	=1	=1	=1	=1	=1	=1	=1
*	*	*	*	*	*	*	*	*	*	*^	*^	*
!LO:TX:a:t=tutti arco	!	!	!	!	!	!	!	!	!	!	!	!	!	!
*	*	*	*	*	*	*	*	*	*	*v	*v	*	*	*
*	*	*	*	*	*	*	*	*	*	*	*v	*v	*
*Xtuplet	*	*	*	*	*	*	*	*	*	*	*	*
*	*	*	*	*	*	*	*	*	*	*^	*^	*
!LO:TX:b:t=	!	!LO:TX:a:t=tutti arco	!	!	!	!	!	!	!	!	!	!	!	!
*	*	*	*	*	*	*	*	*	*	*v	*v	*	*	*
*	*	*	*	*	*	*	*	*	*	*	*v	*v	*
*	*	*Xtuplet	*	*	*	*	*	*	*	*	*	*
*	*	*	*	*	*	*	*	*	*	*^	*^	*
!	!	!	!	!	!	!	!	!	!	!	!	!LO:TX:t=[quarter]=120	!	!
!	!	!	!	!	!	!	!	!	!	!	!	!LO:TX:t=[quarter-dot]=118	!	!
!	!	!	!	!	!	!	!	!LO:TX:t=[quarter]=120	!	!	!	!LO:TX:b:t=	!	!
!	!	!	!	!	!	!	!	!LO:TX:t=[quarter-dot]=118	!	!	!	!LO:TX:a:B:t=  Var. III Allegro moderato (poco meno mosso)	!	!
!	!	!	!	!	!	!	!	!LO:TX:a:B:t=  Var. III Allegro moderato (poco meno mosso)	!	!	!	!LO:TX:b:t=	!	!
!	!	!LO:TX:b:t=	!	!LO:TX:b:t=	!	!LO:TX:b:t=	!	!LO:TX:b:t=	!	!	!	!LO:TX:b:t=[f]	!	!
16%3C^L	f	16%3C^L	f	2%3r	.	2%3r	.	2%3r)	.	8ryy	8CL	8ryy	8eL	.
.	.	.	.	.	.	.	.	.	.	8ryy	8E-XJ	8ryy	8gJ	.
16%3r	.	16%3r	.	.	.	.	.	.	.	.	.	.	.	.
.	.	.	.	.	.	.	.	.	.	4B^	8BL	4ee-X^	8ee-L	.
16%3BB^	.	16%3BB^	.	.	.	.	.	.	.	.	8D	.	8g-X	.
.	.	.	.	.	.	.	.	.	.	8ryy	8F#XJ	8ryy	8b-XJ	.
16%3r	.	16%3r	.	.	.	.	.	.	.	.	.	.	.	.
.	.	.	.	.	.	.	.	.	.	4BB-X^	8BB-L	4d^	8dL	.
16%3BB-X^	.	16%3BB-X^	.	.	.	.	.	.	.	.	8Fn	.	8a	.
.	.	.	.	.	.	.	.	.	.	8ryy	8D-XJ	8ryy	8fJ	.
16%3r	.	16%3r	.	.	.	.	.	.	.	.	.	.	.	.
.	.	.	.	.	.	.	.	.	.	4B-X^	8B-L	4dd^	8ddL	.
16%3EE^J	.	16%3EE^J	.	.	.	.	.	.	.	.	8A-X	.	8cc	.
.	.	.	.	.	.	.	.	.	.	8ryy	8cJ	8ryy	8eenJ	.
16%3r	.	16%3r	.	.	.	.	.	.	.	.	.	.	.	.
.	.	.	.	.	.	.	.	.	.	8G^L	[8GL	8bn^L	[8bL	.
=2	=2	=2	=2	=2	=2	=2	=2	=2	=2	=2	=2	=2	=2	=2
16%3C^L	.	16%3C^L	.	2%3r	.	2%3r	.	2%3r	.	8GJ]	8C	8bJ]	8e	.
.	.	.	.	.	.	.	.	.	.	16ryy@	8E-XJ	16ryy@	8gJ	.
16%3r	.	16%3r	.	.	.	.	.	.	.	16ryy@	.	16ryy@	.	.
.	.	.	.	.	.	.	.	.	.	4Bn^	8BL	4ee-X^	8ee-L	.
16%3BB^	.	16%3BB^	.	.	.	.	.	.	.	.	8D	.	8g-X	.
.	.	.	.	.	.	.	.	.	.	8ryy	8F#XJ	8ryy	8b-XJ	.
16%3r	.	16%3r	.	.	.	.	.	.	.	.	.	.	.	.
.	.	.	.	.	.	.	.	.	.	4BB-X^	8BB-L	4d^	8dL	.
16%3BB-X^	.	16%3BB-X^	.	.	.	.	.	.	.	.	8Fn	.	8a	.
.	.	.	.	.	.	.	.	.	.	8ryy	8D-XJ	8ryy	8fJ	.
16%3r	.	16%3r	.	.	.	.	.	.	.	.	.	.	.	.
.	.	.	.	.	.	.	.	.	.	4B-X^	8B-L	4dd^	8ddL	.
16%3EE^J	.	16%3EE^J	.	.	.	.	.	.	.	.	8A-X	.	8cc	.
.	.	.	.	.	.	.	.	.	.	8ryy	8cJ	8ryy	8eenJ	.
16%3r	.	16%3r	.	.	.	.	.	.	.	.	.	.	.	.
*	*	*	*	*	*	*	*	*	*	*v	*v	*	*	*
*	*	*	*	*	*	*	*	*	*	*	*v	*v	*
.	.	.	.	.	.	.	.	.	.	8G^	8bn^	.
!!pagebreak:original
=3	=3	=3	=3	=3	=3	=3	=3	=3	=3	=3	=3	=3
*	*	*	*	*Xtuplet	*	*Xtuplet	*	*	*	*	*	*
*	*	*	*	*	*	*	*	*	*	*	*^	*
16%3C^	.	16%3C^L	.	8%3r^	.	8%3r^	.	2%3r	.	4c^ 4e	4ff#X^	8b-XL	.
.	.	.	.	.	.	.	.	.	.	.	.	8a	.
16%3r	.	16%3r	.	.	.	.	.	.	.	.	.	.	.
.	.	.	.	.	.	.	.	.	.	8r	8ffn	8a-XJ	.
8%3r^	.	16%3f#X^	.	16%3f#X^	f	16%3ff#X^	f	.	.	8cL 8e	8eeL	8gL	.
.	.	.	.	.	.	.	.	.	.	8c-X 8e-X	8ee-X	8g-X	.
.	.	16%3r	.	16%3r	.	16%3r	.	.	.	.	.	.	.
.	.	.	.	.	.	.	.	.	.	8B-XJ 8d	8ddJ	8fJ	.
16%3C^	.	16%3C^	.	8%3r^	.	8%3r^	.	.	.	4A^ 4cn	4cc^	8eL	.
.	.	.	.	.	.	.	.	.	.	.	.	8f	.
16%3r	.	16%3r	.	.	.	.	.	.	.	.	.	.	.
.	.	.	.	.	.	.	.	.	.	8r	8dd-X	8eJ	.
8%3r^	.	16%3f#^J	.	16%3f#^	.	16%3ff#^	.	.	.	8A-XL 8c	8ccL	8e-XL	.
.	.	.	.	.	.	.	.	.	.	8G 8Bn	8bn	8d	.
.	.	16%3r	.	16%3r	.	16%3r	.	.	.	.	.	.	.
.	.	.	.	.	.	.	.	.	.	8FJ 8An	8anJ	8cJ	.
=4	=4	=4	=4	=4	=4	=4	=4	=4	=4	=4	=4	=4	=4
16%3AA^	.	16%3AA^L	.	8%3r^	.	8%3r^	.	2%3r	.	4E^ 4G	4g^	8BL	.
.	.	.	.	.	.	.	.	.	.	.	.	8d	.
16%3r	.	16%3r	.	.	.	.	.	.	.	.	.	.	.
.	.	.	.	.	.	.	.	.	.	.	8a	8cJ	.
8%3r^	.	16%3g^	.	16%3g^	.	16%3gg^	.	.	.	8EL 8G	8gL	8BL	.
.	.	.	.	.	.	.	.	.	.	8D 8F	8f	8A	.
.	.	16%3r	.	16%3r	.	16%3r	.	.	.	.	.	.	.
.	.	.	.	.	.	.	.	.	.	8CJ 8E	8eJ	8GJ	.
16%3BB-X^	.	16%3BB-X^J	.	16%3r^	.	16%3r^	.	.	.	4BB-X 4D	4d	8F	.
.	.	.	.	.	.	.	.	.	.	.	.	4B-X	.
16%3r	.	16%3r	.	16%3dL	f	16%3ddL	f	.	.	.	.	.	.
.	.	.	.	.	.	.	.	.	.	8F	8f	.	.
8%3r^	.	8%3r^	.	16%3dd^J	.	16%3ddd^J	.	.	.	4B-X^ 4d	4dd^	4b-X	.
.	.	.	.	16%3r	.	16%3r	.	.	.	.	.	.	.
*	*	*	*	*	*	*	*	*	*	*^	*	*	*
.	.	.	.	.	.	.	.	.	.	8GL	[8G^L	8b-L	[8b-^L	.
=5	=5	=5	=5	=5	=5	=5	=5	=5	=5	=5	=5	=5	=5	=5
16%3C^L	f	16%3C^L	f	2%3r	.	2%3r	.	2%3r	.	8GJ]	8C	8b-J]	8e-X	.
.	.	.	.	.	.	.	.	.	.	16ryy@	8E-XJ	16ryy@	8g-XJ	.
16%3r	.	16%3r	.	.	.	.	.	.	.	16ryy@	.	16ryy@	.	.
.	.	.	.	.	.	.	.	.	.	4B^	8BL	4dd^	8ddL	.
16%3BBn^	.	16%3BB^	.	.	.	.	.	.	.	.	8D	.	8f	.
.	.	.	.	.	.	.	.	.	.	8ryy	8F#XJ	8ryy	8aJ	.
16%3r	.	16%3r	.	.	.	.	.	.	.	.	.	.	.	.
.	.	.	.	.	.	.	.	.	.	4BB-X^	8BB-L	4d-X^	8d-L	.
16%3BB-X^	.	16%3BB-X^	.	.	.	.	.	.	.	.	8Fn	.	8a-X	.
.	.	.	.	.	.	.	.	.	.	8ryy	8D-XJ	8ryy	8f-XJ	.
16%3r	.	16%3r	.	.	.	.	.	.	.	.	.	.	.	.
.	.	.	.	.	.	.	.	.	.	4B-X^	8B-L	4dd-X^	8dd-L	.
16%3GG-X^J	.	16%3GG-X^J	.	.	.	.	.	.	.	.	8A-X	.	8cc-X	.
.	.	.	.	.	.	.	.	.	.	8ryy	8cnJ	8ryy	8ee-XJ	.
16%3r	.	16%3r	.	.	.	.	.	.	.	.	.	.	.	.
.	.	.	.	.	.	.	.	.	.	8G^L	[8GL	8b-X^L	[8b-L	.
!!pagebreak:original
=6	=6	=6	=6	=6	=6	=6	=6	=6	=6	=6	=6	=6	=6	=6
16%3C^L	.	16%3C^L	.	2%3r	.	2%3r	.	2%3r	.	8GJ]	8C	8b-J]	8e-X	.
.	.	.	.	.	.	.	.	.	.	16ryy@	8E-XJ	16ryy@	8g-XJ	.
16%3r	.	16%3r	.	.	.	.	.	.	.	16ryy@	.	16ryy@	.	.
.	.	.	.	.	.	.	.	.	.	4B^	8BnL	4dd^	8ddnL	.
16%3BBn^	.	16%3BB^	.	.	.	.	.	.	.	.	8D	.	8f	.
.	.	.	.	.	.	.	.	.	.	8ryy	8F#XJ	8ryy	8aJ	.
16%3r	.	16%3r	.	.	.	.	.	.	.	.	.	.	.	.
.	.	.	.	.	.	.	.	.	.	4BB-X^	8BB-L	4d-X^	8d-L	.
16%3BB-X^	.	16%3BB-X^	.	.	.	.	.	.	.	.	8Fn	.	8a-X	.
.	.	.	.	.	.	.	.	.	.	8ryy	8D-XJ	8ryy	8f-XJ	.
16%3r	.	16%3r	.	.	.	.	.	.	.	.	.	.	.	.
.	.	.	.	.	.	.	.	.	.	4B-X^	8B-XL	4dd-X^	8dd-L	.
16%3GG-X^J	.	16%3GG-X^J	.	.	.	.	.	.	.	.	8A-X	.	8cc-X	.
.	.	.	.	.	.	.	.	.	.	8ryy	8cnJ	8ryy	8ee-XJ	.
16%3r	.	16%3r	.	.	.	.	.	.	.	.	.	.	.	.
*	*	*	*	*	*	*	*	*	*	*v	*v	*	*	*
*	*	*	*	*	*	*	*	*	*	*clefG2	*	*	*
.	.	.	.	.	.	.	.	.	.	8g-X	8bb-X	8ryy	.
*	*	*	*	*	*	*	*	*	*	*	*v	*v	*
=7	=7	=7	=7	=7	=7	=7	=7	=7	=7	=7	=7	=7
*M6/8	*	*M6/8	*	*M6/8	*	*M6/8	*	*M6/8	*	*M6/8	*M6/8	*
*	*	*	*	*	*	*	*	*	*	*	*8va	*
*^	*	*	*	*	*	*^	*	*	*	*^	*	*
!LO:TX:a:t=div.	!	!	!	!	!	!	!LO:TX:a:t=div.	!	!	!	!	!	!	!	!
!LO:TX:b:t=	!	!	!LO:TX:b:t=	!	!LO:TX:b:t=	!	!LO:TX:b:t=	!	!	!LO:TX:b:t=	!	!	!	!	!
*v	*v	*	*	*	*	*	*v	*v	*	*	*	*v	*v	*	*
*	*	*	*	*	*	*	*	*Xtuplet	*	*	*	*
*^	*	*	*	*	*	*^	*	*	*	*^	*	*
!	!	!	!	!	!	!	!	!	!	!	!	!	!	!LO:TX:b:t=	!
!	!	!	!	!	!	!	!	!	!	!	!	!	!	!LO:TX:b:t=	!
4%3E-X^v	4%3EE-X^	f > ]	4%3B-X^v	f > ]	4%3dd^v	f > ]	4%3gg-X^v	4%3g-X^	f > ]	4%3bb-X^v	f > ]	8gg-X^L	2.b-X	8dddn^L 8ggg-X 8bbb-X	f
.	.	.	.	.	.	.	.	.	.	.	.	8ff	.	8bb-X	.
.	.	.	.	.	.	.	.	.	.	.	.	8ff-XJ	.	8cccJ 8fff-X 8aaa-X	.
.	.	.	.	.	.	.	.	.	.	.	.	8ee-XL	.	8aa-XL	.
.	.	.	.	.	.	.	.	.	.	.	.	8dd	.	8bb-X 8ddd 8ggg-X	.
.	.	.	.	.	.	.	.	.	.	.	.	8ccJ	.	8gg-XJ	.
*v	*v	*	*	*	*	*	*v	*v	*	*	*	*v	*v	*	*
=8	=8	=8	=8	=8	=8	=8	=8	=8	=8	=8	=8	=8
*M12/8	*	*M12/8	*	*M12/8	*	*M12/8	*	*M12/8	*	*M12/8	*M12/8	*
*^	*	*	*	*	*	*^	*	*	*	*	*	*
!	!	!	!	!	!	!	!	!	!	!	!	!	!LO:TX:b:t=	!
!LO:TX:b:t=	!	!	!LO:TX:b:t=	!	!LO:TX:b:t=	!	!LO:TX:b:t=	!	!	!LO:TX:b:t=	!	!	!LO:TX:b:t=	!
8%3A-X~	8%3AA-X~	mp	8%3A-X~	mp	8%3dd-X~	mp	8%3ff~	8%3f~	mp	8%3aa-X~	mf	8dd-XL	8aa-XL 8ddd-X 8fff	.
.	.	.	.	.	.	.	.	.	.	.	.	8g-X	8bb-X	.
.	.	.	.	.	.	.	.	.	.	.	.	8gnJ	(8bbnJ 8eee-X	.
8%3d-X~	8%3D-X~	.	8%3A-~	.	8%3cc~	.	8%3ff-X~	8%3f-X~	.	8%3aa-~	.	8a-XL	8cccL 8fff-X)	.
*	*	*	*	*	*	*	*	*	*	*	*	*	*X8va	*
.	.	.	.	.	.	.	.	.	.	.	.	8an	8r	.
.	.	.	.	.	.	.	.	.	.	.	.	8b-XJ	(8ffnJ 8bb-X 8dddn	.
8%3g-X~	8%3G-X~	.	8%3G-X~	.	8%3cc-X~	.	8%3ee-X~	8%3e-X~	.	8%3gg-X~	.	8cc-XL	8gg-XL 8ccc-X 8eee-X)	.
.	.	.	.	.	.	.	.	.	.	.	.	8ccn	8r	.
.	.	.	.	.	.	.	.	.	.	.	.	8dd-XJ	(8aanJ 8ddd-X	.
8%3E-X~	8%3EE-X~	.	8%3B-X~	.	8%3ddn~	.	8%3gg-X~	8%3g-X~	.	8%3bb-X~	.	8ddnL	8bb-XL 8dddn)	.
.	.	.	.	.	.	.	.	.	.	.	.	8ee-X	8r	.
.	.	.	.	.	.	.	.	.	.	.	.	8eenJ	(8ggnJ 8cccn	.
*v	*v	*	*	*	*	*	*v	*v	*	*	*	*	*	*
=	=	=	=	=	=	=	=	=	=	=	=	=
*-	*-	*-	*-	*-	*-	*-	*-	*-	*-	*-	*-	*-
!!!system-decoration: [({(s1,s2)})][([(s3,s4)]s5[(s6,s7)])]
